src/svg/28/like_outline_28.svg

<svg height="28" viewBox="0 0 28 28" width="28" xmlns="http://www.w3.org/2000/svg"><g fill="none" fill-rule="evenodd"><path d="m0 0h28v28h-28z"/><path d="m9.02631579 4.88c-3.60438468 0-6.52631579 2.92193111-6.52631579 6.5263158 0 3.6127903 1.44497846 5.4210506 7.49322968 10.125246l2.77888912 2.1613582c.7222209.5617274 1.7335415.5617274 2.4557624 0l2.7788891-2.1613582c6.0482512-4.7041954 7.4932297-6.5124557 7.4932297-10.125246 0-3.60438469-2.9219311-6.5263158-6.5263158-6.5263158-1.8715099 0-3.5377685.85037017-4.9736842 2.48654489-1.4359157-1.63617472-3.1021743-2.48654489-4.97368421-2.48654489zm0 2c1.51918241 0 2.88856221.85751701 4.15119681 2.68334572l.2056219.29733881c.2355978.34068547.7027676.42587577 1.043453.19027797.0743787-.05143587.1388421-.11589925.190278-.19027797l.2056219-.29733881c1.2626346-1.82582871 2.6320144-2.68334572 4.1511968-2.68334572 2.4998152 0 4.5263158 2.02650061 4.5263158 4.5263158 0 2.7802753-1.1374559 4.2036988-6.7211109 8.5465416l-2.7788891 2.1613582-2.7788891-2.1613582c-5.58365502-4.3428428-6.7211109-5.7662663-6.7211109-8.5465416 0-2.49981519 2.02650061-4.5263158 4.52631579-4.5263158z" fill="currentColor" fill-rule="nonzero"/></g></svg>

<?xml version="1.0" encoding="UTF-8"?>
<svg width="28px" height="28px" viewBox="0 0 28 28" version="1.1" xmlns="http://www.w3.org/2000/svg" xmlns:xlink="http://www.w3.org/1999/xlink">
    <!-- Generator: Sketch 63.1 (92452) - https://sketch.com -->
    <title>like_outline_28</title>
    <desc>Created with Sketch.</desc>
    <g id="Page-1" stroke="none" stroke-width="1" fill="none" fill-rule="evenodd">
        <g id="like_outline_28">
            <polygon points="0 0 28 0 28 28 0 28"></polygon>
            <path d="M9.02631579,4.88 C5.42193111,4.88 2.5,7.80193111 2.5,11.4063158 C2.5,15.0191061 3.94497846,16.8273664 9.99322968,21.5315618 L12.7721188,23.69292 C13.4943397,24.2546474 14.5056603,24.2546474 15.2278812,23.69292 L18.0067703,21.5315618 C24.0550215,16.8273664 25.5,15.0191061 25.5,11.4063158 C25.5,7.80193111 22.5780689,4.88 18.9736842,4.88 C17.1021743,4.88 15.4359157,5.73037017 14,7.36654489 C12.5640843,5.73037017 10.8978257,4.88 9.02631579,4.88 Z M9.02631579,6.88 C10.5454982,6.88 11.914878,7.73751701 13.1775126,9.56334572 L13.3831345,9.86068453 C13.6187323,10.20137 14.0859021,10.2865603 14.4265875,10.0509625 C14.5009662,9.99952663 14.5654296,9.93506325 14.6168655,9.86068453 L14.8224874,9.56334572 L14.8224874,9.56334572 C16.085122,7.73751701 17.4545018,6.88 18.9736842,6.88 C21.4734994,6.88 23.5,8.90650061 23.5,11.4063158 C23.5,14.1865911 22.3625441,15.6100146 16.7788891,19.9528574 L14,22.1142156 L11.2211109,19.9528574 C5.63745588,15.6100146 4.5,14.1865911 4.5,11.4063158 C4.5,8.90650061 6.52650061,6.88 9.02631579,6.88 Z" id="↳-Icon-Color" fill="currentColor" fill-rule="nonzero"></path>
        </g>
    </g>
</svg>
